X:1
T:Old Lancashire Reel
M:3/2
R:three-two
L:1/4
K:D
BAG | F3/2 E/2 D f e d/2f/2 | e E2 BAG | F3/2 E/2 D f e c | d3 :|
BAG | FAGBA d/2f/2 | e E2 BAG | FAGBAB/2c/2 | dD2 :|
fga | f3/2 e/2 dfed | e E2 fga | f3/2 e/2 dfec |d3:|
